; generated by PrusaSlicer 2.6.0+win64 on 2024-01-21 at 15:57:17 UTC

; 

; external perimeters extrusion width = 0.45mm
; perimeters extrusion width = 0.45mm
; infill extrusion width = 0.45mm
; solid infill extrusion width = 0.45mm
; top infill extrusion width = 0.40mm
; support material extrusion width = 0.35mm
; first layer extrusion width = 0.42mm

M190 S60 ; set bed temperature and wait for it to be reached
M104 S205 ; set temperature
;TYPE:Custom
G28 ; home all axes
G1 Z5 F5000 ; lift nozzle
M109 S205 ; set temperature and wait for it to be reached
G21 ; set units to millimeters
G90 ; use absolute coordinates
M82 ; use absolute distances for extrusion
G92 E0
; Filament gcode
M107
;LAYER_CHANGE
;Z:0.32
;HEIGHT:0.32
G1 E-2 F2400
G92 E0
G1 Z.32 F9000
G1 X109.186 Y100.856
G1 E2 F2400
;TYPE:Skirt/Brim
;WIDTH:0.42
G1 F1800
G1 X110.929 Y99.44 E2.10497
G1 X114 Y98.649 E2.2532
G1 X126 Y98.649 E2.81409
G1 X128.21 Y99.046 E2.91904
G1 X130.144 Y100.186 E3.02397
G1 X131.56 Y101.929 E3.12894
G1 X132.351 Y105 E3.27717
G1 X132.351 Y135 E4.67939
G1 X131.954 Y137.21 E4.78434
G1 X130.814 Y139.144 E4.88927
G1 X129.071 Y140.56 E4.99424
G1 X126 Y141.351 E5.14247
G1 X114 Y141.351 E5.70336
G1 X111.79 Y140.954 E5.80831
G1 X109.856 Y139.814 E5.91324
G1 X108.44 Y138.071 E6.01821
G1 X107.649 Y135 E6.16644
G1 X107.649 Y105 E7.56866
G1 X108.046 Y102.79 E7.67361
G1 X109.156 Y100.908 E7.77574
G1 E6.37574 F2400
;WIPE_START
G1 F7200
G1 X110.615 Y99.7 E5.77574
;WIPE_END
G92 E0
G1 X124.982 Y106.733 F9000
G1 E2 F2400
;TYPE:Solid infill
;WIDTH:0.422208
G1 F1800
G1 X124.425 Y106.176 E2.03705
G1 X123.925 Y106.176 E2.06057
G1 X124.824 Y107.075 E2.12037
G1 X124.824 Y107.575 E2.14389
G1 X123.425 Y106.176 E2.23695
G1 X122.925 Y106.176 E2.26047
G1 X124.824 Y108.075 E2.38679
G1 X124.824 Y108.575 E2.41031
G1 X122.425 Y106.176 E2.56988
G1 X121.925 Y106.176 E2.5934
G1 X124.824 Y109.075 E2.78623
G1 X124.824 Y109.575 E2.80975
G1 X121.425 Y106.176 E3.03584
G1 X120.925 Y106.176 E3.05936
G1 X124.824 Y110.075 E3.31871
G1 X124.824 Y110.575 E3.34223
G1 X120.425 Y106.176 E3.63484
G1 X119.925 Y106.176 E3.65836
G1 X124.824 Y111.075 E3.98423
G1 X124.824 Y111.575 E4.00775
G1 X119.425 Y106.176 E4.36687
G1 X118.925 Y106.176 E4.39039
G1 X124.824 Y112.075 E4.78277
G1 X124.824 Y112.575 E4.80629
G1 X118.425 Y106.176 E5.23193
G1 X117.925 Y106.176 E5.25545
G1 X124.824 Y113.075 E5.71435
G1 X124.824 Y113.574 E5.73782
G1 X117.426 Y106.176 E6.22991
G1 X116.926 Y106.176 E6.25343
G1 X124.824 Y114.074 E6.77878
G1 X124.824 Y114.574 E6.8023
G1 X120.037 Y109.788 E7.12068
G1 X119.896 Y109.505 E7.13555
G1 X119.601 Y109.113 E7.15863
G1 X119.242 Y108.777 E7.18176
G1 X118.829 Y108.508 E7.20494
G1 X118.704 Y108.455 E7.21133
G1 X116.426 Y106.176 E7.36289
G1 X115.926 Y106.176 E7.38641
G1 X117.971 Y108.221 E7.52244
G1 X117.816 Y108.2 E7.5298
G1 X117.443 Y108.194 E7.54735
G1 X115.426 Y106.176 E7.68155
G1 X115.176 Y106.176 E7.69331
G1 X115.176 Y106.427 E7.70512
G1 X116.974 Y108.225 E7.82472
G1 X116.587 Y108.337 E7.84367
G1 X115.176 Y106.927 E7.93749
G1 X115.176 Y107.427 E7.96101
G1 X116.236 Y108.486 E8.03148
G1 X116.007 Y108.603 E8.04358
G1 X115.919 Y108.669 E8.04875
G1 X115.176 Y107.927 E8.09814
G1 X115.176 Y108.427 E8.12166
G1 X115.633 Y108.884 E8.15206
G1 X115.389 Y109.139 E8.16866
G1 X115.018 Y108.768 E8.19334
G1 E6.79334 F2400
;WIPE_START
G1 F7200
G1 X115.389 Y109.139 E6.62719
G1 X115.633 Y108.884 E6.51543
G1 X115.176 Y108.427 E6.31077
G1 X115.176 Y108.056 E6.19334
;WIPE_END
G92 E0
G1 X120.062 Y110.312 F9000
G1 E2 F2400
G1 F1800
G1 X124.824 Y115.074 E2.31675
G1 X124.824 Y115.574 E2.34027
G1 X120.321 Y111.072 E2.63976
G1 X120.296 Y111.398 E2.65514
G1 X120.268 Y111.518 E2.66094
G1 X124.824 Y116.074 E2.96399
G1 X124.824 Y116.574 E2.98751
G1 X120.167 Y111.918 E3.29725
G1 X120.018 Y112.268 E3.31514
G1 X124.824 Y117.074 E3.63482
G1 X124.824 Y117.574 E3.65834
G1 X119.829 Y112.579 E3.99059
G1 X119.723 Y112.742 E3.99974
G1 X119.611 Y112.862 E4.00746
G1 X124.824 Y118.074 E4.35418
G1 X124.824 Y118.574 E4.3777
G1 X119.366 Y113.117 E4.74072
G1 X119.081 Y113.331 E4.75748
G1 X124.824 Y119.074 E5.13949
G1 X124.824 Y119.574 E5.16301
G1 X118.763 Y113.514 E5.56614
G1 X118.419 Y113.669 E5.58389
G1 X124.824 Y120.074 E6.00993
G1 X124.824 Y120.574 E6.03345
G1 X118.018 Y113.768 E6.48616
G1 X117.897 Y113.796 E6.492
G1 X117.564 Y113.814 E6.50769
G1 X124.824 Y121.074 E6.9906
G1 X124.824 Y121.574 E7.01412
G1 X117.026 Y113.777 E7.53278
G1 X116.916 Y113.763 E7.538
G1 X116.447 Y113.62 E7.56106
G1 X116.303 Y113.553 E7.56853
G1 X124.824 Y122.074 E8.13532
G1 X124.824 Y122.574 E8.15884
G1 X115.176 Y112.926 E8.80059
G1 X115.176 Y113.426 E8.82411
G1 X124.824 Y123.074 E9.46586
G1 X124.824 Y123.574 E9.48938
G1 X115.176 Y113.926 E10.13113
G1 X115.176 Y114.426 E10.15465
G1 X124.824 Y124.074 E10.7964
G1 X124.824 Y124.574 E10.81992
G1 X115.176 Y114.926 E11.46167
G1 X115.176 Y115.426 E11.48519
G1 X124.824 Y125.074 E12.12694
G1 X124.824 Y125.574 E12.15046
G1 X115.176 Y115.926 E12.79221
G1 X115.176 Y116.426 E12.81573
G1 X124.824 Y126.074 E13.45748
G1 X124.824 Y126.574 E13.481
G1 X115.176 Y116.926 E14.12275
G1 X115.176 Y117.426 E14.14627
G1 X124.824 Y127.074 E14.78802
G1 X124.824 Y127.574 E14.81154
G1 X115.176 Y117.926 E15.45329
G1 X115.176 Y118.426 E15.47681
G1 X124.824 Y128.074 E16.11856
G1 X124.824 Y128.574 E16.14208
G1 X115.176 Y118.926 E16.78383
G1 X115.176 Y119.426 E16.80735
G1 X124.824 Y129.074 E17.4491
G1 X124.824 Y129.574 E17.47262
G1 X115.176 Y119.926 E18.11437
G1 X115.176 Y120.426 E18.13789
G1 X124.824 Y130.074 E18.77964
G1 X124.824 Y130.574 E18.80316
G1 X115.176 Y120.926 E19.44491
G1 X115.176 Y121.426 E19.46843
G1 X124.824 Y131.074 E20.11018
G1 X124.824 Y131.574 E20.1337
G1 X115.176 Y121.926 E20.77545
G1 X115.176 Y122.426 E20.79897
G1 X124.824 Y132.074 E21.44072
G1 X124.824 Y132.574 E21.46424
G1 X120.044 Y127.794 E21.78219
G1 X119.992 Y127.671 E21.78847
G1 X119.723 Y127.258 E21.81165
G1 X119.387 Y126.899 E21.83478
G1 X118.993 Y126.603 E21.85796
G1 X118.709 Y126.458 E21.87296
G1 X115.176 Y122.926 E22.10793
G1 X115.176 Y123.426 E22.13145
G1 X117.973 Y126.223 E22.3175
G1 X117.568 Y126.178 E22.33667
G1 X117.435 Y126.185 E22.34293
G1 X115.176 Y123.926 E22.49319
G1 X115.176 Y124.426 E22.51671
G1 X116.995 Y126.245 E22.6377
G1 X116.586 Y126.336 E22.65741
G1 X115.176 Y124.926 E22.7512
G1 X115.176 Y125.426 E22.77472
G1 X116.237 Y126.486 E22.84526
G1 X116.007 Y126.603 E22.8574
G1 X115.919 Y126.669 E22.86257
G1 X115.176 Y125.926 E22.91199
G1 X115.176 Y126.426 E22.93551
G1 X115.634 Y126.883 E22.96594
G1 X115.389 Y127.138 E22.98257
G1 X115.018 Y126.767 E23.00725
G1 E21.60725 F2400
;WIPE_START
G1 F7200
G1 X115.389 Y127.138 E21.4411
G1 X115.634 Y126.883 E21.32912
G1 X115.176 Y126.426 E21.12424
G1 X115.176 Y126.057 E21.00725
;WIPE_END
G92 E0
G1 X120.067 Y128.317 F9000
G1 E2 F2400
G1 F1800
G1 X124.824 Y133.073 E2.31639
G1 X124.824 Y133.573 E2.33991
G1 X120.321 Y129.071 E2.6394
G1 X120.274 Y129.524 E2.66082
G1 X124.574 Y133.824 E2.94684
G1 X124.074 Y133.824 E2.97036
G1 X120.162 Y129.911 E3.23061
G1 X120.121 Y130.053 E3.23756
G1 X120.02 Y130.269 E3.24878
G1 X123.574 Y133.824 E3.48521
G1 X123.074 Y133.824 E3.50873
G1 X119.829 Y130.579 E3.72458
G1 X119.723 Y130.742 E3.73373
G1 X119.612 Y130.861 E3.74138
G1 X122.574 Y133.824 E3.93844
G1 X122.074 Y133.824 E3.96196
G1 X119.367 Y131.116 E4.14205
G1 X119.081 Y131.331 E4.15888
G1 X121.574 Y133.824 E4.32471
G1 X121.074 Y133.824 E4.34823
G1 X118.764 Y131.513 E4.50192
G1 X118.554 Y131.62 E4.51301
G1 X118.413 Y131.663 E4.51994
G1 X120.574 Y133.824 E4.66368
G1 X120.075 Y133.824 E4.68715
G1 X118.021 Y131.77 E4.82378
G1 X117.57 Y131.819 E4.84512
G1 X119.575 Y133.824 E4.97849
G1 X119.075 Y133.824 E5.00201
G1 X117.029 Y131.779 E5.13807
G1 X116.59 Y131.675 E5.15929
G1 X116.298 Y131.547 E5.17429
G1 X118.575 Y133.824 E5.32575
G1 X118.075 Y133.824 E5.34927
G1 X115.176 Y130.925 E5.5421
G1 X115.176 Y131.425 E5.56562
G1 X117.575 Y133.824 E5.72519
G1 X117.075 Y133.824 E5.74871
G1 X115.176 Y131.925 E5.87503
G1 X115.176 Y132.425 E5.89855
G1 X116.575 Y133.824 E5.99161
G1 X116.075 Y133.824 E6.01513
G1 X115.176 Y132.925 E6.07493
G1 X115.176 Y133.425 E6.09845
G1 X115.733 Y133.982 E6.1355
G1 E4.7355 F2400
;WIPE_START
G1 F7200
G1 X115.176 Y133.425 E4.48606
G1 X115.176 Y132.925 E4.32773
G1 X115.605 Y133.354 E4.1355
;WIPE_END
G92 E0
G1 X125.087 Y134.087 F9000
G1 E2 F2400
;TYPE:Perimeter
;WIDTH:0.42
G1 F1800
G1 X114.913 Y134.087 E2.47554
G1 X114.913 Y130.196 E2.65741
;WIDTH:0.451929
G1 X114.929 Y129.823 E2.67645
;WIDTH:0.483859
G1 X114.945 Y129.45 E2.69707
G1 X114.998 Y129.6 E2.70586
;WIDTH:0.457872
G1 X115.216 Y130.143 E2.73616
;WIDTH:0.42
G1 X115.49 Y130.587 E2.76055
G1 X115.796 Y130.911 E2.78138
G1 X116.154 Y131.178 E2.80225
G1 X116.553 Y131.379 E2.82313
G1 X116.98 Y131.507 E2.84397
G1 X117.423 Y131.559 E2.86482
G1 X117.869 Y131.534 E2.8857
G1 X118.303 Y131.431 E2.90655
G1 X118.713 Y131.255 E2.9274
G1 X119.087 Y131.01 E2.9483
G1 X119.411 Y130.704 E2.96913
G1 X119.678 Y130.346 E2.99
G1 X119.879 Y129.947 E3.01088
G1 X120.007 Y129.52 E3.03172
G1 X120.059 Y129.077 E3.05257
G1 X120.034 Y128.631 E3.07345
G1 X119.931 Y128.197 E3.0943
G1 X119.755 Y127.787 E3.11515
G1 X119.51 Y127.413 E3.13605
G1 X119.204 Y127.089 E3.15688
G1 X118.846 Y126.822 E3.17775
G1 X118.359 Y126.586 E3.20304
G1 X117.861 Y126.465 E3.22699
G1 X117.33 Y126.452 E3.25182
G1 X116.769 Y126.553 E3.27846
G1 X116.287 Y126.745 E3.30271
G1 X115.913 Y126.99 E3.32361
G1 X115.589 Y127.296 E3.34444
G1 X115.322 Y127.654 E3.36531
G1 X115.121 Y128.053 E3.38619
;WIDTH:0.446798
G1 X115.03 Y128.341 E3.40138
;WIDTH:0.473597
G1 X114.939 Y128.629 E3.41765
G1 X114.926 Y128.402 E3.4299
;WIDTH:0.446798
G1 X114.913 Y128.176 E3.44129
;WIDTH:0.42
G1 X114.913 Y112.196 E4.18821
;WIDTH:0.451929
G1 X114.929 Y111.823 E4.20725
;WIDTH:0.483859
G1 X114.945 Y111.45 E4.22787
G1 X114.998 Y111.6 E4.23666
;WIDTH:0.457873
G1 X115.216 Y112.143 E4.26696
;WIDTH:0.42
G1 X115.49 Y112.587 E4.29135
G1 X115.796 Y112.911 E4.31218
G1 X116.154 Y113.178 E4.33305
G1 X116.553 Y113.379 E4.35393
G1 X116.98 Y113.507 E4.37477
G1 X117.423 Y113.559 E4.39562
G1 X117.869 Y113.534 E4.4165
G1 X118.303 Y113.431 E4.43735
G1 X118.713 Y113.255 E4.4582
G1 X119.087 Y113.01 E4.4791
G1 X119.411 Y112.704 E4.49993
G1 X119.678 Y112.346 E4.5208
G1 X119.879 Y111.947 E4.54168
G1 X120.024 Y111.444 E4.56615
G1 X120.059 Y110.923 E4.59056
G1 X119.984 Y110.407 E4.61493
G1 X119.784 Y109.857 E4.64228
G1 X119.51 Y109.413 E4.66667
G1 X119.204 Y109.089 E4.6875
G1 X118.846 Y108.822 E4.70837
G1 X118.303 Y108.569 E4.73637
G1 X117.806 Y108.463 E4.76012
G1 X117.24 Y108.454 E4.78658
G1 X116.697 Y108.569 E4.81252
G1 X116.287 Y108.745 E4.83337
G1 X115.913 Y108.99 E4.85427
G1 X115.589 Y109.296 E4.8751
G1 X115.322 Y109.654 E4.89597
G1 X115.121 Y110.053 E4.91685
;WIDTH:0.446798
G1 X115.03 Y110.341 E4.93204
;WIDTH:0.473597
G1 X114.939 Y110.629 E4.94831
G1 X114.926 Y110.402 E4.96056
;WIDTH:0.446798
G1 X114.913 Y110.176 E4.97195
;WIDTH:0.42
G1 X114.913 Y105.913 E5.17121
G1 X125.087 Y105.913 E5.64675
G1 X125.087 Y108.691 E5.7766
G1 X125.087 Y134.027 E6.96082
G1 X125.439 Y134.439 F9000
G1 F1800
G1 X114.561 Y134.439 E7.46927
G1 X114.561 Y105.561 E8.81905
G1 X125.439 Y105.561 E9.3275
G1 X125.439 Y134.379 E10.67447
G1 X125.79 Y134.79 F9000
;TYPE:External perimeter
G1 F1800
G1 X114.21 Y134.79 E11.21573
G1 X114.21 Y105.21 E12.59832
G1 X125.79 Y105.21 E13.13958
G1 X125.79 Y134.73 E14.51937
G1 X125.421 Y134.635 F9000
G1 E13.11937 F2400
;WIPE_START
G1 F7200
G1 X123.895 Y134.74 E12.51937
;WIPE_END
G92 E0
G1 X117.505 Y113.206 F9000
G1 E2 F2400
;TYPE:Perimeter
G1 F1800
G1 X117.071 Y113.168 E2.02036
G1 X116.701 Y113.06 E2.03838
G1 X116.355 Y112.89 E2.0564
G1 X116.045 Y112.663 E2.07436
G1 X115.778 Y112.385 E2.09238
G1 X115.546 Y112.023 E2.11248
G1 X115.346 Y111.473 E2.13983
G1 X115.291 Y111.046 E2.15995
G1 X115.332 Y110.571 E2.18223
G1 X115.44 Y110.201 E2.20025
G1 X115.61 Y109.855 E2.21827
G1 X115.837 Y109.545 E2.23623
G1 X116.115 Y109.278 E2.25425
G1 X116.435 Y109.064 E2.27224
G1 X116.787 Y108.908 E2.29024
G1 X117.249 Y108.805 E2.31236
G1 X117.801 Y108.814 E2.33816
G1 X118.299 Y108.94 E2.36217
G1 X118.645 Y109.11 E2.38019
G1 X118.955 Y109.337 E2.39815
G1 X119.222 Y109.615 E2.41617
G1 X119.454 Y109.977 E2.43627
G1 X119.654 Y110.527 E2.46362
G1 X119.709 Y111.046 E2.48801
G1 X119.668 Y111.429 E2.50601
G1 X119.561 Y111.799 E2.52401
G1 X119.39 Y112.145 E2.54205
G1 X119.163 Y112.455 E2.56001
G1 X118.885 Y112.722 E2.57803
G1 X118.565 Y112.936 E2.59602
G1 X118.213 Y113.092 E2.61402
G1 X117.838 Y113.184 E2.63207
G1 X117.564 Y113.202 E2.6449
G1 X117.481 Y112.859 F9000
;TYPE:External perimeter
G1 F1800
G1 X117.162 Y112.829 E2.65988
G1 X116.85 Y112.742 E2.67502
G1 X116.557 Y112.603 E2.69018
G1 X116.293 Y112.415 E2.70533
G1 X116.066 Y112.184 E2.72047
G1 X115.876 Y111.902 E2.73636
G1 X115.676 Y111.353 E2.76367
G1 X115.641 Y111.015 E2.77955
G1 X115.671 Y110.662 E2.79611
G1 X115.758 Y110.35 E2.81125
G1 X115.897 Y110.057 E2.82641
G1 X116.085 Y109.793 E2.84156
G1 X116.316 Y109.566 E2.8567
G1 X116.584 Y109.382 E2.87189
G1 X116.878 Y109.247 E2.88701
G1 X117.243 Y109.157 E2.90458
G1 X117.795 Y109.165 E2.93038
G1 X118.15 Y109.258 E2.94753
G1 X118.443 Y109.397 E2.96269
G1 X118.707 Y109.585 E2.97784
G1 X118.934 Y109.816 E2.99298
G1 X119.124 Y110.098 E3.00887
G1 X119.324 Y110.647 E3.03618
G1 X119.359 Y111.015 E3.05346
G1 X119.329 Y111.338 E3.06862
G1 X119.242 Y111.65 E3.08376
G1 X119.103 Y111.943 E3.09892
G1 X118.915 Y112.207 E3.11407
G1 X118.684 Y112.434 E3.12921
G1 X118.416 Y112.618 E3.1444
G1 X118.122 Y112.753 E3.15952
G1 X117.808 Y112.834 E3.17468
G1 X117.541 Y112.855 E3.1872
G1 X117.319 Y113.135 F9000
G1 E1.7872 F2400
;WIPE_START
G1 F7200
G1 X117.162 Y112.829 E1.6669
G1 X116.85 Y112.742 E1.56433
G1 X116.557 Y112.603 E1.46164
G1 X116.293 Y112.415 E1.35901
G1 X116.066 Y112.184 E1.25645
G1 X115.944 Y112.003 E1.1872
;WIPE_END
G92 E0
G1 X114.945 Y111.45 F9000
G1 E2 F2400
;TYPE:Perimeter
;WIDTH:0.483859
G1 F1800
G1 X114.927 Y110.922 E2.02918
;WIDTH:0.473597
G1 X114.939 Y110.629 E2.04498
G1 E.64498 F2400
;WIPE_START
G1 F7200
G1 X114.927 Y110.922 E.55212
G1 X114.945 Y111.45 E.38482
;WIPE_END
G1 E.04498 F2400
G92 E0
G1 X117.505 Y131.206 F9000
G1 E2 F2400
;WIDTH:0.42
G1 F1800
G1 X117.071 Y131.168 E2.02036
G1 X116.701 Y131.06 E2.03838
G1 X116.435 Y130.936 E2.0521
G1 X116.045 Y130.663 E2.07435
G1 X115.778 Y130.385 E2.09237
G1 X115.546 Y130.023 E2.11247
G1 X115.346 Y129.473 E2.13982
G1 X115.291 Y128.954 E2.16421
G1 X115.332 Y128.571 E2.18221
G1 X115.44 Y128.201 E2.20023
G1 X115.61 Y127.855 E2.21825
G1 X115.837 Y127.545 E2.23621
G1 X116.115 Y127.278 E2.25423
G1 X116.435 Y127.064 E2.27222
G1 X116.831 Y126.898 E2.29229
G1 X117.392 Y126.798 E2.31892
G1 X117.929 Y126.832 E2.34407
G1 X118.299 Y126.94 E2.36209
G1 X118.645 Y127.11 E2.38011
G1 X118.955 Y127.337 E2.39807
G1 X119.222 Y127.615 E2.41609
G1 X119.436 Y127.935 E2.43408
G1 X119.592 Y128.287 E2.45208
G1 X119.684 Y128.662 E2.47013
G1 X119.709 Y129.046 E2.48812
G1 X119.668 Y129.429 E2.50612
G1 X119.473 Y129.987 E2.53375
G1 X119.163 Y130.455 E2.55999
G1 X118.885 Y130.722 E2.57801
G1 X118.565 Y130.936 E2.596
G1 X118.213 Y131.092 E2.614
G1 X117.838 Y131.184 E2.63205
G1 X117.564 Y131.202 E2.64488
G1 X117.485 Y130.859 F9000
;TYPE:External perimeter
G1 F1800
G1 X117.162 Y130.829 E2.66004
G1 X116.85 Y130.742 E2.67518
G1 X116.584 Y130.618 E2.6889
G1 X116.293 Y130.415 E2.70548
G1 X116.066 Y130.184 E2.72062
G1 X115.876 Y129.902 E2.73651
G1 X115.676 Y129.353 E2.76382
G1 X115.641 Y128.985 E2.7811
G1 X115.671 Y128.662 E2.79626
G1 X115.758 Y128.35 E2.8114
G1 X115.897 Y128.057 E2.82656
G1 X116.085 Y127.793 E2.84171
G1 X116.316 Y127.566 E2.85685
G1 X116.584 Y127.382 E2.87204
G1 X116.893 Y127.244 E2.88786
G1 X117.454 Y127.144 E2.91449
G1 X117.838 Y127.171 E2.93248
G1 X118.15 Y127.258 E2.94762
G1 X118.443 Y127.397 E2.96278
G1 X118.707 Y127.585 E2.97793
G1 X118.934 Y127.816 E2.99307
G1 X119.118 Y128.084 E3.00826
G1 X119.253 Y128.378 E3.02338
G1 X119.334 Y128.692 E3.03854
G1 X119.359 Y129.015 E3.05368
G1 X119.329 Y129.338 E3.06884
G1 X119.155 Y129.838 E3.09359
